src/next/cmd/lc_renamemasterpage.svg

<svg enable-background="new 0 0 128 128" height="24" viewBox="0 0 24 24" width="24" xmlns="http://www.w3.org/2000/svg" xmlns:xlink="http://www.w3.org/1999/xlink"><filter id="a"><feGaussianBlur stdDeviation="1.0394514"/></filter><filter id="b"><feGaussianBlur stdDeviation=".50063244"/></filter><g transform="matrix(.171875 0 0 .171875 1 2)"><path d="m17.231041 2.9481715.04228 120.0452085 91.230293.0764c.375-.375.586-.884.586-1.414l-.001-118.7075092z" filter="url(#a)" opacity=".306849" transform="matrix(0 1.0090419 -1.003276 0 127.07723 -1.871126)"/><path d="m17.231041 3.9136887.04228 119.0796913 91.230293.0764c.375-.375.586-.884.586-1.414l-.001-117.741972-91.857105-.0000893z" filter="url(#a)" opacity=".306849" transform="matrix(0 1.0090419 -1.003276 0 127.07723 -1.871126)"/><path d="m17.231041 2.916954.000004 120.076426h91.857105v-120.076406h-91.857105z" filter="url(#a)" opacity=".553425" transform="matrix(0 1.0090419 -1.003276 0 127.07723 -1.871126)"/><path d="m19.15104 4.8793075.0015 115.9837925 88.01611-.0577v-115.9259632l-88.017106-.0000893z" filter="url(#b)" opacity=".89589" transform="matrix(0 1.0090419 -1.003276 0 127.07723 -1.871126)"/><path d="m122.18193 17.453078-116.3637404.0015-.0000078 87.272722h116.3636382l.00013-87.273722z" fill="#80b3ff"/><g fill="#eee"><path d="m110.54545 23.272727h5.81819v75.561805h-5.67844z" stroke-width="1.040876"/><path d="m11.646499 23.272727h5.8181l-.01005 75.636364h-5.818181z" stroke-width="1.039331"/><g stroke-width="1.032804"><path d="m17.454545 93.090909h93.090905v5.818182h-93.090905z"/><path d="m17.454561 23.272727h93.091159v5.8181h-93.091159z"/><path d="m17.4543 46.5466h93.09115v5.8181h-93.09115z"/></g></g></g><g stroke-width=".999997" transform="matrix(.17187553 0 0 .17187553 -.000034 -.000344)"><rect fill="#747474" height="40.726574" ry="1.454523" width="93.08931" x=".000199" y="5.820081"/><rect fill="#fff" height="29.090408" ry="1.038945" width="81.453148" x="5.818281" y="11.638163"/><path d="m40.727346.00200145.000002 11.63632755h11.636326v34.908983h-11.636326v17.454492h40.727146v-17.454492h-11.63633v-34.908983h11.63633l-.000002-11.63632755z" fill="#fff" fill-opacity=".870588"/><path d="m46.544854.00199937h29.09041v5.81808283h-29.09041z"/><path d="m46.544854 52.364736h29.090412v5.818084h-29.090412z"/><path d="m63.9991 4.3648718v47.9998652h-5.818081v-47.9998652z"/></g></svg>

<?xml version="1.0" encoding="UTF-8" standalone="no"?>
<svg
   xmlns:dc="http://purl.org/dc/elements/1.1/"
   xmlns:cc="http://creativecommons.org/ns#"
   xmlns:rdf="http://www.w3.org/1999/02/22-rdf-syntax-ns#"
   xmlns:svg="http://www.w3.org/2000/svg"
   xmlns="http://www.w3.org/2000/svg"
   xmlns:sodipodi="http://sodipodi.sourceforge.net/DTD/sodipodi-0.dtd"
   xmlns:inkscape="http://www.inkscape.org/namespaces/inkscape"
   enable-background="new 0 0 128 128"
   height="24"
   viewBox="0 0 24 24"
   width="24"
   version="1.1"
   id="svg46"
   sodipodi:docname="lc_renamemasterpage.svg"
   inkscape:version="0.92.4 (unknown)"
   inkscape:export-filename="/home/rizmut/Dokumen/Rizmut/Github/libreoffice-style-karasa-jaga/build/next/cmd/lc_renamemasterpage.png"
   inkscape:export-xdpi="96"
   inkscape:export-ydpi="96">
  <metadata
     id="metadata52">
    <rdf:RDF>
      <cc:Work
         rdf:about="">
        <dc:format>image/svg+xml</dc:format>
        <dc:type
           rdf:resource="http://purl.org/dc/dcmitype/StillImage" />
        <dc:title></dc:title>
      </cc:Work>
    </rdf:RDF>
  </metadata>
  <defs
     id="defs50" />
  <sodipodi:namedview
     pagecolor="#ffffff"
     bordercolor="#666666"
     borderopacity="1"
     objecttolerance="10"
     gridtolerance="10"
     guidetolerance="10"
     inkscape:pageopacity="0"
     inkscape:pageshadow="2"
     inkscape:window-width="1366"
     inkscape:window-height="706"
     id="namedview48"
     showgrid="true"
     inkscape:zoom="13.906433"
     inkscape:cx="2.492659"
     inkscape:cy="14.701159"
     inkscape:window-x="0"
     inkscape:window-y="0"
     inkscape:window-maximized="1"
     inkscape:current-layer="g44">
    <inkscape:grid
       type="xygrid"
       id="grid868" />
  </sodipodi:namedview>
  <filter
     id="a">
    <feGaussianBlur
       stdDeviation="1.0394514"
       id="feGaussianBlur2" />
  </filter>
  <filter
     id="b">
    <feGaussianBlur
       stdDeviation=".50063244"
       id="feGaussianBlur5" />
  </filter>
  <g
     transform="matrix(.171875 0 0 .171875 1 2)"
     id="g32">
    <path
       d="m17.231041 2.9481715.04228 120.0452085 91.230293.0764c.375-.375.586-.884.586-1.414l-.001-118.7075092z"
       filter="url(#a)"
       opacity=".306849"
       transform="matrix(0 1.0090419 -1.003276 0 127.07723 -1.871126)"
       id="path8" />
    <path
       d="m17.231041 3.9136887.04228 119.0796913 91.230293.0764c.375-.375.586-.884.586-1.414l-.001-117.741972-91.857105-.0000893z"
       filter="url(#a)"
       opacity=".306849"
       transform="matrix(0 1.0090419 -1.003276 0 127.07723 -1.871126)"
       id="path10" />
    <path
       d="m17.231041 2.916954.000004 120.076426h91.857105v-120.076406h-91.857105z"
       filter="url(#a)"
       opacity=".553425"
       transform="matrix(0 1.0090419 -1.003276 0 127.07723 -1.871126)"
       id="path12" />
    <path
       d="m19.15104 4.8793075.0015 115.9837925 88.01611-.0577v-115.9259632l-88.017106-.0000893z"
       filter="url(#b)"
       opacity=".89589"
       transform="matrix(0 1.0090419 -1.003276 0 127.07723 -1.871126)"
       id="path14" />
    <path
       d="m122.18193 17.453078-116.3637404.0015-.0000078 87.272722h116.3636382l.00013-87.273722z"
       fill="#80b3ff"
       id="path16" />
    <g
       fill="#eee"
       id="g30">
      <path
         d="m110.54545 23.272727h5.81819v75.561805h-5.67844z"
         stroke-width="1.040876"
         id="path18" />
      <path
         d="m11.646499 23.272727h5.8181l-.01005 75.636364h-5.818181z"
         stroke-width="1.039331"
         id="path20" />
      <g
         stroke-width="1.032804"
         id="g28">
        <path
           d="m17.454545 93.090909h93.090905v5.818182h-93.090905z"
           id="path22" />
        <path
           d="m17.454561 23.272727h93.091159v5.8181h-93.091159z"
           id="path24" />
        <path
           d="m17.4543 46.5466h93.09115v5.8181h-93.09115z"
           id="path26" />
      </g>
    </g>
  </g>
  <g
     stroke-width=".999997"
     transform="matrix(.17187553 0 0 .17187553 -.000034 -.000344)"
     id="g44">
    <rect
       fill="#747474"
       height="40.726574"
       ry="1.454523"
       width="93.08931"
       x=".000199"
       y="5.820081"
       id="rect34" />
    <rect
       fill="#fff"
       height="29.090408"
       ry="1.038945"
       width="81.453148"
       x="5.818281"
       y="11.638163"
       id="rect36" />
    <path
       inkscape:connector-curvature="0"
       style="opacity:1;vector-effect:none;fill:#ffffff;fill-opacity:0.87058824;stroke:none;stroke-width:5.81816387;stroke-linecap:butt;stroke-linejoin:miter;stroke-miterlimit:4;stroke-dasharray:none;stroke-dashoffset:0;stroke-opacity:1"
       d="m 40.727346,0.00200145 2e-6,11.63632755 H 52.363674 V 46.547312 H 40.727348 V 64.001804 H 81.454494 V 46.547312 H 69.818164 V 11.638329 h 11.63633 l -2e-6,-11.63632755 z"
       id="rect901"
       sodipodi:nodetypes="ccccccccccccc" />
    <path
       d="m46.544854.00199937h29.09041v5.81808283h-29.09041z"
       id="path38" />
    <path
       d="m46.544854 52.364736h29.090412v5.818084h-29.090412z"
       id="path40" />
    <path
       d="m63.9991 4.3648718v47.9998652h-5.818081v-47.9998652z"
       id="path42" />
  </g>
</svg>
